X: 5492
T: Bunker Hill
R: reel
M: 4/4
K: Dmixolydian
|:cA|GEcE D2ED|(3EFG AB c2Bc|~A3G EG~G2|ABcA d2cA|
GEcE D2ED|(3EFG AB c2Bc|(3dcB (3cBA BG~G2|ABcA d2:|
|:cA|Gc~c2 ec~c2|GccB cBAG|Ad~d2 fd~d2|Add^c dcAG|
(3EFG AB cAdB|cAdB c2Bc|(3dcB (3cBA BG~G2|ABcA d2:|
|:ge|fd~d2 ad~d2|fadf a2gf|ge~e2 gebe|gbeg b2ag|
f3e d^cde|fdAB ~c2Bc|dcB (3cBA BG~G2|ABcA d2:|

